outputs/icons/file/page_width_round.svg

<svg xmlns="http://www.w3.org/2000/svg" width="1200" height="1200" fill="none"><path fill="#000" d="M356.25 637.5v-75h75v75zm206.25 0v-75h75v75zm206.25 0v-75h75v75zM150 200c0-27.614 22.386-50 50-50s50 22.386 50 50v800c0 27.615-22.386 50-50 50s-50-22.385-50-50zM950 200c0-27.614 22.385-50 50-50s50 22.386 50 50v800c0 27.615-22.385 50-50 50s-50-22.385-50-50z"/></svg>

<svg width="1200" height="1200" viewBox="0 0 1200 1200" fill="none" xmlns="http://www.w3.org/2000/svg"><path d="M356.25 637.5V562.5H431.25V637.5H356.25ZM562.5 637.5V562.5H637.5V637.5H562.5ZM768.75 637.5V562.5H843.75V637.5H768.75Z" fill="black"/><path d="M150 200C150 172.386 172.386 150 200 150C227.614 150 250 172.386 250 200V1000C250 1027.615 227.614 1050 200 1050C172.386 1050 150 1027.615 150 1000V200Z" fill="black"/><path d="M950 200C950 172.386 972.385 150 1000 150C1027.615 150 1050 172.386 1050 200V1000C1050 1027.615 1027.615 1050 1000 1050C972.385 1050 950 1027.615 950 1000V200Z" fill="black"/></svg>
